svg/联系人2.svg

<svg width="24" height="24" viewBox="0 0 24 24" fill="none" xmlns="http://www.w3.org/2000/svg"><path d="M17 21H7C3 21 2 20 2 16V8C2 4 3 3 7 3H17C21 3 22 4 22 8V16C22 20 21 21 17 21Z" stroke="#171717" stroke-width="1.5" stroke-linecap="round" stroke-linejoin="round"/><path d="M14 8H19" stroke="#171717" stroke-width="1.5" stroke-linecap="round" stroke-linejoin="round"/><path d="M15 12H19" stroke="#171717" stroke-width="1.5" stroke-linecap="round" stroke-linejoin="round"/><path d="M17 16H19" stroke="#171717" stroke-width="1.5" stroke-linecap="round" stroke-linejoin="round"/><path d="M8.49994 11.2899C9.49958 11.2899 10.3099 10.4796 10.3099 9.47992C10.3099 8.48029 9.49958 7.66992 8.49994 7.66992C7.50031 7.66992 6.68994 8.48029 6.68994 9.47992C6.68994 10.4796 7.50031 11.2899 8.49994 11.2899Z" stroke="#171717" stroke-width="1.5" stroke-linecap="round" stroke-linejoin="round"/><path d="M12 16.33C11.86 14.88 10.71 13.74 9.26 13.61C8.76 13.56 8.25 13.56 7.74 13.61C6.29 13.75 5.14 14.88 5 16.33" stroke="#171717" stroke-width="1.5" stroke-linecap="round" stroke-linejoin="round"/></svg>

<svg fill="none" viewBox="0 0 24 24"><path stroke="#171717" stroke-linecap="round" stroke-linejoin="round" stroke-width="1.5" d="M17 21H7c-4 0-5-1-5-5V8c0-4 1-5 5-5h10c4 0 5 1 5 5v8c0 4-1 5-5 5"/><path stroke="#171717" stroke-linecap="round" stroke-linejoin="round" stroke-width="1.5" d="M14 8h5"/><path stroke="#171717" stroke-linecap="round" stroke-linejoin="round" stroke-width="1.5" d="M15 12h4"/><path stroke="#171717" stroke-linecap="round" stroke-linejoin="round" stroke-width="1.5" d="M17 16h2"/><path stroke="#171717" stroke-linecap="round" stroke-linejoin="round" stroke-width="1.5" d="M8.5 11.29a1.81 1.81 0 1 0 0-3.62 1.81 1.81 0 0 0 0 3.62"/><path stroke="#171717" stroke-linecap="round" stroke-linejoin="round" stroke-width="1.5" d="M12 16.33a3.02 3.02 0 0 0-2.74-2.72 7.7 7.7 0 0 0-1.52 0A3.03 3.03 0 0 0 5 16.33"/></svg>
